dest/img/img-trust-3.svg

<svg fill="none" height="40" viewBox="0 0 71 40" width="71" xmlns="http://www.w3.org/2000/svg"><path d="m45.3869 6.56025 1.3677-6.56025h-40.16673l-6.58787 31.5409h33.584l-1.8492 8.4591h32.1701l7.0951-33.43975z" fill="#576472"/><g fill="#fff"><path d="m13.6892 27.5143c-.9104 0-1.7709-.1493-2.5799-.4493-.809-.2987-1.51533-.7402-2.11761-1.3234-.60228-.5831-1.07743-1.3002-1.42673-2.1524s-.52394-1.8306-.52394-2.9364c0-1.5113.20932-2.8888.62925-4.1311.41992-1.2422 1.00423-2.3069 1.75291-3.1951.74872-.887 1.64632-1.5744 2.69422-2.061 1.0466-.4866 2.1934-.73 3.4378-.73.8398 0 1.636.1468 2.3911.4416.7538.2948 1.4139.7222 1.9802 1.286.5664.5626 1.0171 1.2552 1.351 2.0765s.5008 1.7649.5008 2.8296c0 .1622-.0051.3527-.0154.5703-.0103.2188-.0257.4415-.0462.6694-.0206.2278-.0411.4518-.0604.6694-.0205.2175-.0449.4029-.0757.5548h-11.79271c-.01028.1429-.01798.2794-.02312.4107-.00514.1326-.0077.269-.0077.4106 0 .842.12199 1.559.36473 2.1525.2427.5934.5586 1.0775.949 1.4534.3891.3759.827.6462 1.3124.8136.4854.1673.976.251 1.4717.251 1.0826 0 1.9532-.188 2.6107-.5626s1.1584-.8818 1.5025-1.5216h2.7777c-.172.6295-.4559 1.2178-.8501 1.7649-.3942.5472-.8925 1.0222-1.4948 1.4225-.6023.4004-1.3009.7158-2.0945.9437-.7936.2278-1.6669.3424-2.6172.3424zm5.3268-9.9962c.0103-.0502.018-.1441.0232-.2819.0051-.1364.0077-.2716.0077-.4029 0-.5381-.0784-1.0479-.235-1.5294-.1567-.4814-.3917-.905-.7063-1.2706-.3134-.3656-.7038-.6539-1.1687-.8676-.4661-.2124-1.0068-.3193-1.6245-.3193-.6279 0-1.2148.112-1.7606.3347-.547.2227-1.0427.5407-1.4871.9514-.4456.4106-.8295.9024-1.1532 1.4752-.3236.5729-.5817 1.2101-.7743 1.9092h8.8788z"/><path d="m29.2255 27.5139c-.8193 0-1.5885-.1544-2.3077-.4647-.7191-.309-1.3484-.7531-1.889-1.3311-.5419-.578-.9696-1.2783-1.2829-2.0996-.3134-.8214-.47-1.7392-.47-2.7536 0-.9836.0989-1.9246.2953-2.8219.1965-.8973.4778-1.7289.8425-2.4948.3647-.766.8013-1.4586 1.3124-2.0765.5111-.6192 1.0774-1.1457 1.7003-1.5821.6228-.4364 1.2944-.7711 2.0187-1.0042.723-.233 1.4794-.3501 2.2692-.3501.5868 0 1.1454.0811 1.6771.2433.5316.1622 1.0119.3875 1.4421.6771.4302.2897.7988.6386 1.1083 1.0492.3082.4107.5342.86.6755 1.3466h.2427l2.0187-9.54046h2.6557l-4.8568 22.91456h-2.5195l.47-2.2361h-.2427c-.5972.7814-1.3459 1.3967-2.2461 1.8486-.9002.4493-1.8723.6758-2.9138.6758zm.8347-2.3584c.8502 0 1.6361-.1995 2.3604-.6011.723-.4004 1.3535-.9488 1.889-1.6427.5368-.6951.9567-1.5113 1.2598-2.4498.303-.9384.4559-1.9503.4559-3.0355 0-.7003-.0964-1.3285-.289-1.8872-.1926-.5575-.4661-1.0325-.8193-1.4225-.3544-.3901-.7846-.6926-1.2906-.905-.506-.2137-1.0774-.3193-1.7157-.3193-.8398 0-1.6193.1879-2.3372.5626-.7191.3759-1.3407.8972-1.8672 1.5666-.5265.6695-.9413 1.4689-1.2444 2.3958-.303.9269-.4558 1.9451-.4558 3.051 0 .69.0988 1.3233.2966 1.9013.1978.5781.4726 1.0724.827 1.4831.3545.4106.7795.7299 1.2752.959.4957.2292 1.0479.3437 1.6553.3437z"/><path d="m65.3574 10.8716h-5.924l-6.462 8.0201h-.3185l-3.4172-8.0201h-5.992l5.1367 11.6491-11.0889 13.1681h5.8443l7.117-8.4591h.4803l3.8448 8.4591h5.8803l-5.6864-12.585z"/></g></svg>

<svg width="71" height="40" viewBox="0 0 71 40" fill="none" xmlns="http://www.w3.org/2000/svg">
<path d="M45.3869 6.56025L46.7546 0H6.58787L0 31.5409H33.584L31.7348 40H63.9049L71 6.56025H45.3869Z" fill="#576472"/>
<path d="M13.6892 27.5143C12.7788 27.5143 11.9183 27.365 11.1093 27.065C10.3003 26.7663 9.59397 26.3248 8.99169 25.7416C8.38941 25.1585 7.91426 24.4414 7.56496 23.5892C7.21566 22.737 7.04102 21.7586 7.04102 20.6528C7.04102 19.1415 7.25034 17.764 7.67027 16.5217C8.09019 15.2795 8.6745 14.2148 9.42318 13.3266C10.1719 12.4396 11.0695 11.7522 12.1174 11.2656C13.164 10.779 14.3108 10.5356 15.5552 10.5356C16.395 10.5356 17.1912 10.6824 17.9463 10.9772C18.7001 11.272 19.3602 11.6994 19.9265 12.2632C20.4929 12.8258 20.9436 13.5184 21.2775 14.3397C21.6114 15.161 21.7783 16.1046 21.7783 17.1693C21.7783 17.3315 21.7732 17.522 21.7629 17.7396C21.7526 17.9584 21.7372 18.1811 21.7167 18.409C21.6961 18.6368 21.6756 18.8608 21.6563 19.0784C21.6358 19.2959 21.6114 19.4813 21.5806 19.6332H9.78789C9.77761 19.7761 9.76991 19.9126 9.76477 20.0439C9.75963 20.1765 9.75707 20.3129 9.75707 20.4545C9.75707 21.2965 9.87906 22.0135 10.1218 22.607C10.3645 23.2004 10.6804 23.6845 11.0708 24.0604C11.4599 24.4363 11.8978 24.7066 12.3832 24.874C12.8686 25.0413 13.3592 25.125 13.8549 25.125C14.9375 25.125 15.8081 24.937 16.4656 24.5624C17.1231 24.1878 17.624 23.6806 17.9681 23.0408H20.7458C20.5738 23.6703 20.2899 24.2586 19.8957 24.8057C19.5015 25.3529 19.0032 25.8279 18.4009 26.2282C17.7986 26.6286 17.1 26.944 16.3064 27.1719C15.5128 27.3997 14.6395 27.5143 13.6892 27.5143ZM19.016 17.5181C19.0263 17.4679 19.034 17.374 19.0392 17.2362C19.0443 17.0998 19.0469 16.9646 19.0469 16.8333C19.0469 16.2952 18.9685 15.7854 18.8119 15.3039C18.6552 14.8225 18.4202 14.3989 18.1056 14.0333C17.7922 13.6677 17.4018 13.3794 16.9369 13.1657C16.4708 12.9533 15.9301 12.8464 15.3124 12.8464C14.6845 12.8464 14.0976 12.9584 13.5518 13.1811C13.0048 13.4038 12.5091 13.7218 12.0647 14.1325C11.6191 14.5431 11.2352 15.0349 10.9115 15.6077C10.5879 16.1806 10.3298 16.8178 10.1372 17.5169H19.016V17.5181Z" fill="white"/>
<path d="M29.2255 27.5139C28.4062 27.5139 27.637 27.3595 26.9178 27.0492C26.1987 26.7402 25.5694 26.2961 25.0288 25.7181C24.4869 25.1401 24.0592 24.4398 23.7459 23.6185C23.4325 22.7971 23.2759 21.8793 23.2759 20.8649C23.2759 19.8813 23.3748 18.9403 23.5712 18.043C23.7677 17.1457 24.049 16.3141 24.4137 15.5482C24.7784 14.7822 25.215 14.0896 25.7261 13.4717C26.2372 12.8525 26.8035 12.326 27.4264 11.8896C28.0492 11.4532 28.7208 11.1185 29.4451 10.8854C30.1681 10.6524 30.9245 10.5353 31.7143 10.5353C32.3011 10.5353 32.8597 10.6164 33.3914 10.7786C33.923 10.9408 34.4033 11.1661 34.8335 11.4557C35.2637 11.7454 35.6323 12.0943 35.9418 12.5049C36.25 12.9156 36.476 13.3649 36.6173 13.8515H36.86L38.8787 4.31104H41.5344L36.6776 27.2256H34.1581L34.6281 24.9895H34.3854C33.7882 25.7709 33.0395 26.3862 32.1393 26.8381C31.2391 27.2874 30.267 27.5139 29.2255 27.5139ZM30.0602 25.1555C30.9104 25.1555 31.6963 24.956 32.4206 24.5544C33.1436 24.154 33.7741 23.6056 34.3096 22.9117C34.8464 22.2166 35.2663 21.4004 35.5694 20.4619C35.8724 19.5235 36.0253 18.5116 36.0253 17.4264C36.0253 16.7261 35.9289 16.0979 35.7363 15.5392C35.5437 14.9817 35.2702 14.5067 34.917 14.1167C34.5626 13.7266 34.1324 13.4241 33.6264 13.2117C33.1204 12.998 32.549 12.8924 31.9107 12.8924C31.0709 12.8924 30.2914 13.0803 29.5735 13.455C28.8544 13.8309 28.2328 14.3522 27.7063 15.0216C27.1798 15.6911 26.765 16.4905 26.4619 17.4174C26.1589 18.3443 26.0061 19.3625 26.0061 20.4684C26.0061 21.1584 26.1049 21.7917 26.3027 22.3697C26.5005 22.9478 26.7753 23.4421 27.1297 23.8528C27.4842 24.2634 27.9092 24.5827 28.4049 24.8118C28.9006 25.041 29.4528 25.1555 30.0602 25.1555Z" fill="white"/>
<path d="M65.3574 10.8716H59.4334L52.9714 18.8917H52.6529L49.2357 10.8716H43.2437L48.3804 22.5207L37.2915 35.6888H43.1358L50.2528 27.2297H50.7331L54.5779 35.6888H60.4582L54.7718 23.1038L65.3574 10.8716Z" fill="white"/>
</svg>
